X:1
T:Title
%%score { 1 | 2 }
L:1/8
Q:1/4=108
M:4/4
K:Bb
V:1 treble nm="Grand Piano"
V:2 bass 
V:1
 B2 AG F2 G2 | C4 D4 | [B,FB]2 [CEA][DB] [CEc]2 [A,EF]2 | [Dd]8 | [Gd]2 [Gc][Fd] [Ee]2 [Fd]2 | %5
w: John~Heywood * * * *|||||
 [Gc]4 G4 | B2 [FA][FB] [=Ed]2 [Ec]2 | F8 | B2 FF c2 F2 | d4 B4 | G2 [FG][FG] [Ee]2 [=Ed]2 | %11
w: ||||||
 [Fc]8 | [CFA]2 [_DGA][DGA] [=D^Fd]2 [DAc]2 | [DGB]4 G2 z G | F2 B2 c3 [DB] |[M:8/4] [DB]8 z8 | %16
w: |||||
[M:4/4] [EB]4 [DB]4 |] %17
w: |
V:2
 B,2 A,G, F,2 G,2 | C,4 D,4 | D,2 C,B,, A,,2 F,2 | [B,,B,]8 | %4
 [=B,,G,]2 [A,,G,][B,,G,] [C,G,]2 [D,=B,]2 | [E,C]4 [=E,_D]4 | %6
 [F,DF]2 [E,C][D,B,] [C,B,]2 [C,B,]2 | [F,A,]8 | B,2 F,F, C2 F,2 | D4 B,4 | %10
 [E,B,E]2 [D,=B,][D,B,] [C,C]2 [C,_B,]2 | [F,A,]8 | F,2 =E,E, D,2 ^F,2 | G,4 G,2 z [=E,B,_D] | %14
 [F,B,D]2 [F,D]2 [F,A,E]3 [B,,B,] |[M:8/4] [B,,B,]8 z8 |[M:4/4] [E,G,]4 [B,,F,]4 |] %17

